X:1
T:Have Faith in God (Stephens)
T:Have Faith in God (Stephens)
T:May Agnew Stephens
T:May Agnew Stephens, 1897
T:Public Domain Courtesy of the Cyber Hymnal™
T:Public Domain Courtesy of the Cyber Hymnal™
C:May Agnew Stephens
Z:Public Domain
Z:Courtesy of the Cyber Hymnal™
%%score ( 1 2 ) ( 3 4 )
L:1/8
Q:1/4=93
M:4/4
K:G
V:1 treble 
V:2 treble 
V:3 bass 
V:4 bass 
V:1
 [GB][Gc] | [Ge][Gd][GB][DG] [DF][FA][EG][CE] | %2
w: 1.~Do you|ev- er feel down- heart- ed or dis-|
w: 2.~Dark- est|night will al- ways come be- fore the|
w: 3.~God is|might- y, He is a- ble to de-|
 [CE] [B,D]3 z2 [CE][CF][B,G][CF][DG][DA][DB][Dd][Dc][DB] | [DA]6 [DB][Ec] | %4
w: cour- aged? Do you ev- er think your work is all in|vain? Do the|
w: dawn- ing, Sil- ver lin- ings shine on God’s side of the|cloud; All your|
w: liv- er, Faith can vic- tor be in ev- ery try- ing|hour; Fear and|
 [Ge][Gd][GB][DG] [DF][FA][EG][CE] | [CE] [B,D]3 z2 D[DE] | [DF][DA][Dd][DB] [^CA][C^G][C=G][CE] | %7
w: bur- dens thrust up- on you make you|trem- ble, And you|fear that you shall ne’er the vic- tory|
w: jour- ney He has prom- ised to be|with you; Naught has|come to you but what His love al-|
w: care, and sin and sor- row be de-|feat- ed By our|faith in God’s al- might- y, con- quering|
 D4- !fermata![CD]3/2 ||"^Refrain" [DB]<[B,G] [CE]/ | [B,D]4- [B,D]>[B,G] [CF]>[^CE] | %10
w: gain? *|||
w: lowed. Have|* faith in|God, * the sun will|
w: power. *|||
 [DF]4- [DF]>D D>[^CE] | [CF]4- [CF]>[B,G] [CA]>[^C^A] | [DB]4- [DB]>[DB] [B,G]>[CE] | %13
w: |||
w: shine, * Tho’ dark the|clouds * may be to-|day; * His heart hath|
w: |||
 [B,D]4- [B,D]>[GB] [Gc]>[GB] | [Ge]4- [Ge]>[CE] [CF]>[EG] | [DB]4- [DB]>[CE] [CF]>[CD] | %16
w: |||
w: planned * your path and|mine, * Have faith in|God, * have faith al-|
w: |||
"^riten." G4- !fermata![B,G]2 |] %17
w: |
w: way. *|
w: |
V:2
 x2 | x8 | x16 | x8 | x8 | x6 D x | x8 | A,2 B,2 x3/2 || x5/2 | x8 | x11/2 D/ D3/2 x/ | x8 | x8 | %13
 x8 | x8 | x8 | B,>B,C>C x2 |] %17
V:3
 [G,D][G,E] | [G,C][G,B,][G,D][G,B,] [C,A,][C,C][C,C][C,G,] | %2
w: ~ ~|~ ~ ~ ~ ~ ~ ~ ~|
 [G,,G,] [G,,G,]3 z2 [C,G,][A,,D,][G,,D,][A,,D,][B,,D,][D,F,][G,,G,][B,,G,][A,,F,][G,,G,] | %3
w: ~ ~ ~ ~ ~ ~ ~ ~ ~ ~ ~ ~|
 [D,F,]6 G,G, | [G,C][G,B,][G,D][G,B,] [C,A,][C,C][C,C][C,G,] | [G,,G,] [G,,G,]3 z2 [G,B,][G,B,] | %6
w: ~ ~ ~|~ ~ ~ ~ ~ ~ ~ ~|~ ~ ~ ~|
 A,[A,,F,][A,,F,][A,,F,] [A,,E,][A,,E,][A,,E,][A,,G,] | (F,2 G,2 !fermata![D,A,]3/2) || z/ z2 | %9
w: ~ ~ ~ ~ ~ ~ ~ ~|~ * *||
 z3/2 [G,,G,]/ [G,,G,]>[G,,G,] [G,,G,]3/2 z/ z2 | z3/2 [D,A,]/ [D,F,]>[D,A,] [D,C]3/2 z/ z2 | %11
w: Have faith in God,|* the sun will|
 z3/2 [D,A,]/ [D,A,]>[D,A,] [D,A,]3/2 z/ z2 | z3/2 [G,,G,]/ [G,,G,]>[G,,G,] [G,,G,]3/2 z/ z2 | %13
w: shine, Tho’ dark the|clouds may be to-|
 z3/2 [G,,G,]/ [G,,G,]>[G,,G,] [G,,G,]3/2 z/ z2 | z3/2 [C,C]/ [C,C]>[C,C] [C,C]3/2 z/ z2 | %15
w: day; His heart hath|planned your path and|
 z3/2 [D,G,]/ [D,G,]>[D,G,] [D,G,]>[D,A,] [D,A,]>[D,F,] | %16
w: mine Have faith in God, ~ ~|
 [G,,D,]>[G,,D,] [G,,E,]>[G,,_E,] !fermata![G,,D,]2 |] %17
w: ~ ~ have faith al-|
V:4
 x2 | x8 | x16 | x6 G,G, | x8 | x8 | A, x7 | D,4- x3/2 || x5/2 | x8 | x8 | x8 | x8 | x8 | x8 | x8 | %16
 x6 |] %17

